src/img/comprobante.svg

<svg width="56" height="59" viewBox="0 0 56 59" fill="none" xmlns="http://www.w3.org/2000/svg">
<path d="M45.5137 45.8613C45.5137 46.1074 45.418 46.3125 45.2266 46.4766C45.0625 46.668 44.8574 46.7637 44.6113 46.7637H11.3887C11.1426 46.7637 10.9238 46.668 10.7324 46.4766C10.5684 46.3125 10.4863 46.1074 10.4863 45.8613C10.4863 45.6426 10.5684 45.4375 10.7324 45.2461C10.9238 45.082 11.1426 45 11.3887 45H44.6113C44.8574 45 45.0625 45.082 45.2266 45.2461C45.418 45.4375 45.5137 45.6426 45.5137 45.8613ZM15.7363 37.9863V13.377C15.7363 13.3496 15.7363 13.3359 15.7363 13.3359C15.7363 13.3086 15.7363 13.2949 15.7363 13.2949C15.7637 12.8301 15.9414 12.4609 16.2695 12.1875C16.5977 11.8867 16.9668 11.7363 17.377 11.7363C17.5137 11.7363 17.6367 11.7637 17.7461 11.8184C17.8828 11.8457 18.0059 11.8867 18.1152 11.9414L20.9863 13.377L23.7344 11.9414C23.8438 11.8867 23.9668 11.8457 24.1035 11.8184C24.2402 11.7637 24.377 11.7363 24.5137 11.7363C24.6504 11.7363 24.7734 11.7637 24.8828 11.8184C25.0195 11.8457 25.1562 11.8867 25.293 11.9414L28 13.5L30.707 11.9414C30.8438 11.8867 30.9668 11.8457 31.0762 11.8184C31.2129 11.7637 31.3496 11.7363 31.4863 11.7363C31.623 11.7363 31.7598 11.7637 31.8965 11.8184C32.0332 11.8457 32.1562 11.8867 32.2656 11.9414L35.0137 13.377L37.8848 11.9414C37.9941 11.8594 38.1035 11.8047 38.2129 11.7773C38.3496 11.75 38.4863 11.7363 38.623 11.7363C39.0332 11.7363 39.4023 11.8867 39.7305 12.1875C40.0586 12.4609 40.2363 12.8301 40.2637 13.2949C40.2637 13.2949 40.2637 13.3086 40.2637 13.3359C40.2637 13.3359 40.2637 13.3496 40.2637 13.377V37.9863C40.2637 38.4785 40.0859 38.9023 39.7305 39.2578C39.4023 39.5859 38.9922 39.75 38.5 39.75H17.5C17.0078 39.75 16.584 39.5859 16.2285 39.2578C15.9004 38.9023 15.7363 38.4785 15.7363 37.9863ZM17.5 37.9863H38.5V13.582L34.9727 15.3457L31.4863 13.5L28 15.5098L27.1387 15.0176L24.5137 13.5L21.0273 15.3457L20.207 14.9355L17.5 13.582V37.9863ZM21.8887 22.2363H34.1113C34.3574 22.2363 34.5625 22.1543 34.7266 21.9902C34.918 21.8262 35.0137 21.6211 35.0137 21.375C35.0137 21.1289 34.918 20.9238 34.7266 20.7598C34.5625 20.5957 34.3574 20.5137 34.1113 20.5137H21.8887C21.6426 20.5137 21.4238 20.5957 21.2324 20.7598C21.0684 20.9238 20.9863 21.1289 20.9863 21.375C20.9863 21.6211 21.0684 21.8262 21.2324 21.9902C21.4238 22.1543 21.6426 22.2363 21.8887 22.2363ZM21.8887 27.4863H34.1113C34.3574 27.4863 34.5625 27.4043 34.7266 27.2402C34.918 27.0762 35.0137 26.8711 35.0137 26.625C35.0137 26.3789 34.918 26.1738 34.7266 26.0098C34.5625 25.8457 34.3574 25.7637 34.1113 25.7637H21.8887C21.6426 25.7637 21.4238 25.8457 21.2324 26.0098C21.0684 26.1738 20.9863 26.3789 20.9863 26.625C20.9863 26.8711 21.0684 27.0762 21.2324 27.2402C21.4238 27.4043 21.6426 27.4863 21.8887 27.4863ZM21.8887 32.7363H34.1113C34.3574 32.7363 34.5625 32.6543 34.7266 32.4902C34.918 32.3262 35.0137 32.1211 35.0137 31.875C35.0137 31.6289 34.918 31.4238 34.7266 31.2598C34.5625 31.0957 34.3574 31.0137 34.1113 31.0137H21.8887C21.6426 31.0137 21.4238 31.0957 21.2324 31.2598C21.0684 31.4238 20.9863 31.6289 20.9863 31.875C20.9863 32.1211 21.0684 32.3262 21.2324 32.4902C21.4238 32.6543 21.6426 32.7363 21.8887 32.7363Z" fill="#56504C"/>
</svg>

<svg width="56" height="59" fill="none" xmlns="http://www.w3.org/2000/svg"><path d="M45.514 45.861a.777.777 0 01-.287.616.777.777 0 01-.616.287H11.39a.903.903 0 01-.657-.287.835.835 0 01-.246-.616.93.93 0 01.246-.615.98.98 0 01.657-.246h33.22c.246 0 .452.082.616.246.191.191.287.397.287.615zm-29.778-7.875V13.295c.028-.465.205-.834.534-1.107.328-.301.697-.452 1.107-.452.137 0 .26.028.37.082.136.028.259.069.368.123l2.871 1.436 2.748-1.436c.11-.054.233-.095.37-.123.136-.054.273-.082.41-.082.136 0 .26.028.369.082.137.028.273.069.41.123L28 13.5l2.707-1.559c.137-.054.26-.095.37-.123.136-.054.273-.082.41-.082.136 0 .273.028.41.082.136.028.26.069.369.123l2.748 1.436 2.87-1.436a.925.925 0 01.329-.164 2.09 2.09 0 01.41-.04c.41 0 .78.15 1.108.45.328.274.505.643.533 1.108v24.692c0 .491-.178.915-.534 1.27-.328.329-.738.493-1.23.493h-21a1.81 1.81 0 01-1.271-.492 1.81 1.81 0 01-.493-1.272zm1.764 0h21V13.582l-3.527 1.764-3.487-1.846L28 15.51l-.861-.492-2.625-1.518-3.487 1.846-.82-.41-2.707-1.354v24.404zm4.389-15.75H34.11a.835.835 0 00.616-.246.777.777 0 00.287-.615.777.777 0 00-.287-.615.835.835 0 00-.616-.246H21.89a.98.98 0 00-.657.246.835.835 0 00-.246.615c0 .246.082.451.246.615a.98.98 0 00.657.246zm0 5.25H34.11a.835.835 0 00.616-.246.777.777 0 00.287-.615.777.777 0 00-.287-.615.835.835 0 00-.616-.246H21.89a.98.98 0 00-.657.246.835.835 0 00-.246.615c0 .246.082.451.246.615a.98.98 0 00.657.246zm0 5.25H34.11a.835.835 0 00.616-.246.777.777 0 00.287-.615.777.777 0 00-.287-.615.835.835 0 00-.616-.246H21.89a.98.98 0 00-.657.246.835.835 0 00-.246.615c0 .246.082.451.246.615a.98.98 0 00.657.246z" fill="#56504C"/></svg>
